X: 8
T: Paddy Fahey's
R: reel
M: 4/4
L: 1/8
K: Dmaj
|:BG G2 BGcA|BGBd cAFA|BG G2 Bcde|fgaf gedc|
BG G2 BGcA|BGBd cAFA|BG G2 Bcdg|fgaf g3a:||
|:bgaf dg g2|fdcA FGAd|bgaf gfdc|defa g3a|
bg g2 dg g2|fdcA FGAc|BG G2 Bcdg|1(3efg af g3a|2 (3efg af g2 dc||


Tune 492	Setting 28427

